!!!COM: Music21
!!!OTL: polka_Road-To-Santiago
!!!OMV: polka_Road-To-Santiago
**kern
*clefG2
*k[b-e-]
*g:
*M2/4
=1
8gL
8aJ
8b-L
8ccJ
=
4dd
8ccL
8ddJ
=
4ee-
4dd
=
2cc
=
8ggL
8ffJ
8ee-L
8ddJ
=
4cc
8b-L
8ccJ
=
8ddL
8ccJ
8b-L
8aJ
=
2g
=||
*M2/4
8gL
8aJ
8b-L
8ccJ
=
4dd
8ccL
8ddJ
=
4ee-
4dd
=
2cc
=
8ggL
8ffJ
8ee-L
8ddJ
=
4cc
8b-L
8ccJ
=
8ddL
8ccJ
8b-L
8aJ
=
2g
=||
8ggL
8ffJ
8ggL
8ffJ
=
8ee-L
8ddJ
8ee-L
8ddJ
=
8ccL
8ddJ
8ccL
8b-J
=
2a
=
8gL
8aJ
8b-L
8ccJ
=
4dd
8ccL
8ddJ
=
4ee-
4dd
=
2cc
=||
8ggL
8ffJ
8ggL
8ffJ
=
8ee-L
8ddJ
8ee-L
8ddJ
=
8ccL
8ddJ
8ccL
8b-J
=
2a
=
8gL
8aJ
8b-L
8ccJ
=
4dd
8ccL
8b-J
=
8aL
8b-J
4a
=
2g
=||
*-
